X: 62
T: No_160_Scalp_Song.krn
N: Derived from No_160_Scalp_Song.krn
%%abc-version 2.0
%%abcx-abcm2ps-target-version 5.9.1 (29 Sep 2008)
%%abc-creator hum2abc beta
%%abcx-conversion-date 2019/03/15 08:29:13
%%humdrum-veritas 3234764317
%%humdrum-veritas-data 2154484766
%%linebreak <none>
%%barnumbers 0
L: 1/8
M: 3/4
%%staves {1 2}
V: 1 clef=bass
V: 2 clef=bass
K: G
[V:1] [K:clef=bass][M:3/4]EE EE E (3E/B,/B,/ | 
[V:2] [K:clef=bass][M:3/4]z6 | 
[V:1] {/D} EE EE EE | 
[V:2] (3!accent!G,, z G,, (3!accent!G,, z G,, (3!accent!G,, z G,, | 
[V:1] EE EE B,/A,/G,/E,/ | 
[V:2] z6 | 
[V:1] G,G, G,G, G,G, ||  
[V:2] z6 ||  
[V:1] [M:2/4]EB, EB, | 
[V:2] [M:2/4]z4 | 
[V:1] B,/A,/G,/A,/ G,E, | 
[V:2] z4 | 
[V:1] G,G, G,G, ||  
[V:2] z4 ||  
[V:1] [M:3/4]G,G, G,G, G, (3E,/B,,/B,,/ ||  
[V:2] [M:3/4]z6 ||  
[V:1] [M:2/4]E,E, E,E, | 
[V:2] [M:2/4]z4 | 
[V:1] E,E, E,E, | 
[V:2] z4 | 
[V:1] E,2G,2 | 
[V:2] z4 | 
[V:1] E,2G,2 ||  
[V:2] z4 ||  
[V:1] [M:3/4]A,/G,/A,/G,/ E,E, E, (3E,/B,,/B,,/ ||  
[V:2] [M:3/4]z6 ||  
[V:1] [M:2/4]E,E, E,E, | 
[V:2] [M:2/4]z4 | 
[V:1] E,E, E,E, | 
[V:2] z4 | 
[V:1] E,4 |]  
[V:2] z4 |]  



